images/gdg-logo.svg

<?xml version="1.0" encoding="UTF-8" standalone="no"?>
<svg xmlns="http://www.w3.org/2000/svg" height="267px" width="1434px" version="1.1" xmlns:xlink="http://www.w3.org/1999/xlink" viewBox="0 0 1434 267"><!-- Generator: Sketch 39.1 (31720) - http://www.bohemiancoding.com/sketch -->
 <title>Slice 1</title>
 <desc>Created with Sketch.</desc>
 <g id="Page-1" fill-rule="evenodd" fill="none">
  <g id="gdg-logo">
   <g id="XMLID_6_" transform="translate(200)">
    <path id="XMLID_3_" fill="#757575" d="m159.9 138.4c0 22-6.5 39.6-19.6 52.7-14.8 15.6-34.1 23.4-57.9 23.4-22.8 0-42.1-7.9-58.1-23.7-15.9-15.8-23.9-35.4-23.9-58.7s8-42.9 23.9-58.7 35.3-23.7 58.1-23.7c11.3 0 22.1 2.2 32.4 6.6s18.5 10.3 24.7 17.6l-13.9 13.9c-10.5-12.6-24.9-18.8-43.3-18.8-16.6 0-31 5.8-43.1 17.5s-18.2 26.8-18.2 45.5 6.1 33.8 18.2 45.5 26.5 17.5 43.1 17.5c17.6 0 32.3-5.9 44.1-17.6 7.6-7.6 12-18.3 13.2-31.9h-57.3v-19h76.4c0.8 4.1 1.2 8.1 1.2 11.9z"/>
    <path id="XMLID_20_" fill="#757575" d="m180.3 210.9v-157.8h48.2c24.2 0 43.6 7.3 58.2 21.9 14.5 14.6 21.8 33.6 21.8 57s-7.3 42.3-21.8 57c-14.5 14.6-33.9 21.9-58.2 21.9h-48.2zm20.3-19.4h28c18.2 0 32.6-5.2 43.3-15.6 10.6-10.4 16-25 16-43.8 0-18.7-5.3-33.2-16-43.7s-25.1-15.8-43.3-15.8h-28v118.9z"/>
    <path id="XMLID_23_" fill="#757575" d="m481 138.4c0 22-6.5 39.6-19.6 52.7-14.8 15.6-34.1 23.4-57.9 23.4-22.8 0-42.1-7.9-58.1-23.7-15.9-15.8-23.9-35.4-23.9-58.7s8-42.9 23.9-58.7 35.3-23.7 58.1-23.7c11.3 0 22.1 2.2 32.4 6.6s18.5 10.3 24.7 17.6l-13.9 13.9c-10.5-12.6-24.9-18.8-43.3-18.8-16.6 0-31 5.8-43.1 17.5s-18.2 26.8-18.2 45.5 6.1 33.8 18.2 45.5 26.5 17.5 43.1 17.5c17.6 0 32.3-5.9 44.1-17.6 7.6-7.6 12-18.3 13.2-31.9h-57.3v-19h76.4c0.8 4.1 1.2 8.1 1.2 11.9z"/>
    <text id="Maceió" font-size="220" font-family="ProductSans-Regular, Product Sans" fill-opacity=".54" fill="#000000">
     <tspan y="211" x="540">Maceió</tspan>
    </text>
   </g>
   <g id="XMLID_261_" fill="#757575" transform="translate(0 34)">
    <polygon id="XMLID_259_" points="32.3 0 0 0 92.3 160 108.5 132"/>
    <path id="XMLID_258_" d="m120.9 91l-52.6-91h-32.2l74.3 128.8 10.5-18.2c1.7-2.8 2.8-6.2 2.8-9.8-0.1-3.6-1.1-6.9-2.8-9.8z"/>
    <polygon id="XMLID_257_" points="56.3 104.1 0.9 200 33.2 200 72.5 132"/>
    <polygon id="XMLID_256_" points="74.3 135.3 37 200 69.2 200 90.5 163.2"/>
   </g>
  </g>
 </g>
</svg>

<?xml version="1.0" encoding="UTF-8" standalone="no"?>
<svg width="1434px" height="267px" viewBox="0 0 1434 267" version="1.1" xmlns="http://www.w3.org/2000/svg" xmlns:xlink="http://www.w3.org/1999/xlink">
    <!-- Generator: Sketch 39.1 (31720) - http://www.bohemiancoding.com/sketch -->
    <title>Slice 1</title>
    <desc>Created with Sketch.</desc>
    <defs></defs>
    <g id="Page-1" stroke="none" stroke-width="1" fill="none" fill-rule="evenodd">
        <g id="gdg-logo">
            <g id="XMLID_6_" transform="translate(200.000000, 0.000000)">
                <path d="M159.9,138.4 C159.9,160.4 153.4,178 140.3,191.1 C125.5,206.7 106.2,214.5 82.4,214.5 C59.6,214.5 40.3,206.6 24.3,190.8 C8.4,175 0.4,155.4 0.4,132.1 C0.4,108.8 8.4,89.2 24.3,73.4 C40.2,57.6 59.6,49.7 82.4,49.7 C93.7,49.7 104.5,51.9 114.8,56.3 C125.1,60.7 133.3,66.6 139.5,73.9 L125.6,87.8 C115.1,75.2 100.7,69 82.3,69 C65.7,69 51.3,74.8 39.2,86.5 C27.1,98.2 21,113.3 21,132 C21,150.7 27.1,165.8 39.2,177.5 C51.3,189.2 65.7,195 82.3,195 C99.9,195 114.6,189.1 126.4,177.4 C134,169.8 138.4,159.1 139.6,145.5 L82.3,145.5 L82.3,126.5 L158.7,126.5 C159.5,130.6 159.9,134.6 159.9,138.4 L159.9,138.4 Z" id="XMLID_3_" fill="#757575"></path>
                <path d="M180.3,210.9 L180.3,53.1 L228.5,53.1 C252.7,53.1 272.1,60.4 286.7,75 C301.2,89.6 308.5,108.6 308.5,132 C308.5,155.4 301.2,174.3 286.7,189 C272.2,203.6 252.8,210.9 228.5,210.9 L180.3,210.9 L180.3,210.9 Z M200.6,191.5 L228.6,191.5 C246.8,191.5 261.2,186.3 271.9,175.9 C282.5,165.5 287.9,150.9 287.9,132.1 C287.9,113.4 282.6,98.9 271.9,88.4 C261.2,77.9 246.8,72.6 228.6,72.6 L200.6,72.6 L200.6,191.5 L200.6,191.5 Z" id="XMLID_20_" fill="#757575"></path>
                <path d="M481,138.4 C481,160.4 474.5,178 461.4,191.1 C446.6,206.7 427.3,214.5 403.5,214.5 C380.7,214.5 361.4,206.6 345.4,190.8 C329.5,175 321.5,155.4 321.5,132.1 C321.5,108.8 329.5,89.2 345.4,73.4 C361.3,57.6 380.7,49.7 403.5,49.7 C414.8,49.7 425.6,51.9 435.9,56.3 C446.2,60.7 454.4,66.6 460.6,73.9 L446.7,87.8 C436.2,75.2 421.8,69 403.4,69 C386.8,69 372.4,74.8 360.3,86.5 C348.2,98.2 342.1,113.3 342.1,132 C342.1,150.7 348.2,165.8 360.3,177.5 C372.4,189.2 386.8,195 403.4,195 C421,195 435.7,189.1 447.5,177.4 C455.1,169.8 459.5,159.1 460.7,145.5 L403.4,145.5 L403.4,126.5 L479.8,126.5 C480.6,130.6 481,134.6 481,138.4 L481,138.4 Z" id="XMLID_23_" fill="#757575"></path>
                <text id="Maceió" font-family="ProductSans-Regular, Product Sans" font-size="220" font-weight="normal" fill-opacity="0.54" fill="#000000">
                    <tspan x="540" y="211">Maceió</tspan>
                </text>
            </g>
            <g id="XMLID_261_" transform="translate(0.000000, 34.000000)" fill="#757575">
                <polygon id="XMLID_259_" points="32.3 0 0 0 92.3 160 108.5 132"></polygon>
                <path d="M120.9,91 L68.3,0 L36.1,0 L110.4,128.8 L120.9,110.6 C122.6,107.8 123.7,104.4 123.7,100.8 C123.6,97.2 122.6,93.9 120.9,91 L120.9,91 Z" id="XMLID_258_"></path>
                <polygon id="XMLID_257_" points="56.3 104.1 0.9 200 33.2 200 72.5 132"></polygon>
                <polygon id="XMLID_256_" points="74.3 135.3 37 200 69.2 200 90.5 163.2"></polygon>
            </g>
        </g>
    </g>
</svg>
